X:1
T:Title
%%score { ( 1 3 ) | ( 2 4 ) }
L:1/8
M:6/8
K:C
V:1 treble nm="Grand Piano"
V:3 treble 
V:2 bass 
V:4 bass 
V:1
 z3 z2[Q:1/4=84] [CE]/[DF]/ | [EG][EG][EG] [EG][_E^F][=EG] | [FA][FA]E F2 F | FEF BAG | %4
 [EG][_E^F][=EG] [CE]2 [CE]/[D=F]/ | [EG][FA][EG] [Ec][FB][Gc] | dcA A3 | Gcf ecd | %8
[M:5/8] [Ec]3 [Ec]2 |[M:1/8] [Ec] |[M:3/4] dB GG AB | c2- [Fc-] [Ec]2 [Ec] | BA GA G^F | G6 | %14
 [EG][Ec] [Fd][Ge] [Af][Ge] | dA A A3 | Gc fe cd |[M:5/8] [Ec]3 [Ec]2 |] %18
V:2
 z3 z2 [C,G,] | [C,C][C,C][C,C] [C,C][C,C][C,C] | [C,C][C,C][C,C] [G,B,D]2 [G,B,D] | %3
 [G,B,D][G,C][G,B,D] [G,D][G,A,D][G,B,D] | [C,C][C,C][C,C] [C,G,]2 [C,G,] | %5
 [C,C][C,C][C,C] [C,G,][D,G,][E,C] | [F,A,F][F,A,F][F,CF] [F,CF]3 | %7
 [G,CE][G,E][G,B,G] [G,CG][G,E][G,F] |[M:5/8][K:bass] [C,G,]3 [C,G,]2 |[M:1/8] [C,G,] | %10
[M:3/4][K:treble] [G,B,F][G,DF] [G,B,F][G,B,F] [G,CF][G,DF] | z2 A, G,2 [C,G,] | %12
 [G,D][G,C] [G,B,][D,CD] [D,B,D][D,A,D] | [B,D]2 C B,2 [G,B,F] | [C,C][C,G,] [C,G,] [C,C]2 [C,C] | %15
 [F,A,F][F,CF] [F,CF] [F,CF]3 | [G,CE][G,E] [G,B,G][G,CG] [G,E][G,F] | %17
[M:5/8][K:bass] [C,G,]3 [C,G,]2 |] %18
V:3
 x6 | x6 | x6 | x6 | x6 | x6 | x6 | x6 |[M:5/8] x5 |[M:1/8] x |[M:3/4] x6 | [CE]2 z2 z2 | x6 | %13
 z2 E D2 G | x6 | x6 | x6 |[M:5/8] x5 |] %18
V:4
 x6 | x6 | x6 | x6 | x6 | x6 | x6 | x6 |[M:5/8][K:bass] x5 |[M:1/8] x |[M:3/4][K:treble] x6 | C,6 | %12
 x6 | G,6 | x6 | x6 | x6 |[M:5/8][K:bass] x5 |] %18

